X: 1
T: Earl of Angus and Arran [AABCBC]
C: William Marshall
R: strathspey
B: RSCDS 26-9
Z: 1997 by John Chambers <jc:trillian.mit.edu>
M: C
L: 1/8
K: G
D "A"\
| "G"G<G d2 "Em"B>A G>B | "Am"c<E A>G "D7"F>D E>F \
| "G"G<G d2 "Em"B>A G>B | "Am"c<E "D7"A>F "G"G3 :|
|: d "B"\
| "G"B<d G>d B<d G>f | g>G B>G "D7"F<A A>c \
| "G"B<d G>d B<d g>b | "A7"a>g f>e "D"d3 ||
yB "C"\
| "Am"c<e A>c "G"B<d G>B | "Am"A>B c>B "D7"A>G F>D \
| "G"G<B "D7"A>c "G"B<d "C"c>e | "G"d<g "D7"f>a "G"g3 :|
